X:1
P: The Midlothian Pipe Band
C: Beaton/Scots Guards; "fiddle" version
C: Arr. T. Traub 12-10-1999
R: Jig
M: 6/8
K: D
L: 1/8
|: fe|"D"d2 A d>ef|ABA A2 A|"D"f>gf "Bm"fed|"Em"e>fe "A"A>Bc|"D"d2 A "D7"d>ef|"G"B<GB B2 g|
"D"f>ga "A"A>Bc|"D"d3 d :| ag|"D"f>gf fed|"A"e>fe e>fg|"D"aAa "D7"f2 e|"G"d>BB B2 g|
"D"f>gf fed|"A"e>fe e>fg|"D"fga "A"ABc|"D"d3 "A"a2 g|| "D"f>gf fed|"A"e>fe e>fg|
"D"aAa "D7"f2 e|"G"d>BB B2 g|"D"fga "A"efg|"Bm"fed "G"B2 g|"D"f>ga "A7"A>Bc|"D"d2 d2 |]
